X: 301
U:~=!turn!
M:C
L:1/8
K:D
f | (d/e/f/g/) ad fdad | (A/B/c/d/) eA cAeA | (d/e/f/g/) ad fdad | Agf>e fddf |
(d/e/f/g/) ad fdad | (A/B/c/d/) eA cAec | d>fe>g f>de<f | d>BA>F D/D/D D |]


